X:25
T:the Heart should be happy & merry
A:Wyresdale, Lancashire
B:H.S.J. Jackson, 1823
L:1/8
M:6/8
O:England
Q:Allegretto
Z:Richard Robinson 
%%TUNEURL: http://www.leeds.ac.uk/music/Info/RRTuneBk/gettune/00000df7.html
%%ID:00000df7
K:D
A|\
d>cd edc  | dfd A2A  |   dfa f>dg | f<ez z2d/e/ |\
f>gf e2c  | dcB A2^A | ! B>cB eef | ged  Hc2A   |\
d>cd e>ag | fdf g>eA |   dcd eae | fdz z2 ||
%page:4
